svg/add.svg

<svg width="24" height="24" viewBox="0 0 24 24" fill="none" xmlns="http://www.w3.org/2000/svg">
<path d="M12 4C12.5523 4 13 4.44772 13 5V11H19C19.5523 11 20 11.4477 20 12C20 12.5523 19.5523 13 19 13H13V19C13 19.5523 12.5523 20 12 20C11.4477 20 11 19.5523 11 19V13H5C4.44772 13 4 12.5523 4 12C4 11.4477 4.44772 11 5 11H11V5C11 4.44772 11.4477 4 12 4Z" fill="#0D0D0D"/>
</svg>

<svg width="24" height="24" fill="none" xmlns="http://www.w3.org/2000/svg"><path d="M12 4a1 1 0 011 1v6h6a1 1 0 110 2h-6v6a1 1 0 11-2 0v-6H5a1 1 0 110-2h6V5a1 1 0 011-1z" fill="#0D0D0D"/></svg>
